svg/color/cod.svg

<?xml version="1.0" encoding="UTF-8" ?>
<!DOCTYPE svg PUBLIC "-//W3C//DTD SVG 1.1//EN" "http://www.w3.org/Graphics/SVG/1.1/DTD/svg11.dtd">
<svg width="250pt" height="250pt" viewBox="0 0 250 250" version="1.1" xmlns="http://www.w3.org/2000/svg">
<g id="#ffffffff">
<path fill="#ffffff" opacity="1.00" d=" M 0.00 0.00 L 109.97 0.00 C 103.06 2.34 95.73 2.95 88.78 5.14 C 62.83 13.01 39.50 29.52 23.71 51.60 C 15.91 63.05 9.40 75.49 5.40 88.80 C 3.40 95.43 2.65 102.41 0.00 108.85 L 0.00 0.00 Z" />
<path fill="#ffffff" opacity="1.00" d=" M 138.23 0.00 L 250.00 0.00 L 250.00 107.38 C 247.16 100.92 246.60 93.81 244.40 87.16 C 236.81 63.69 222.28 42.45 202.95 27.10 C 190.30 17.75 176.33 10.00 161.22 5.43 C 153.70 3.05 145.80 2.21 138.23 0.00 Z" />
<path fill="#ffffff" opacity="1.00" d=" M 117.31 39.84 C 122.51 39.04 127.77 39.60 132.94 40.28 C 142.05 40.33 150.72 43.52 159.13 46.69 C 164.68 48.73 169.56 52.13 174.43 55.42 C 183.28 61.13 190.60 69.04 196.19 77.94 C 212.35 100.98 215.08 132.41 203.91 158.14 C 200.98 165.37 196.49 171.79 192.02 178.12 C 184.63 188.13 174.25 195.35 163.52 201.37 C 136.44 215.58 101.57 213.38 76.76 195.37 C 64.21 187.70 55.15 175.64 48.27 162.87 C 36.05 138.78 36.47 108.91 49.31 85.15 C 55.32 74.69 62.57 64.64 72.49 57.56 C 78.61 53.41 84.64 48.90 91.67 46.38 C 99.89 43.07 108.49 40.77 117.31 39.84 M 126.95 47.39 C 131.67 56.44 139.30 63.39 146.54 70.39 C 148.12 69.51 149.72 68.67 151.34 67.89 C 150.92 70.06 149.90 72.48 151.20 74.54 C 155.30 83.62 165.22 87.43 173.51 91.69 C 173.57 93.22 173.60 94.75 173.58 96.29 C 172.12 97.41 170.05 98.11 169.31 99.91 C 172.58 105.08 177.04 109.39 181.47 113.56 C 184.11 115.77 187.28 118.40 190.98 117.52 C 196.55 114.16 196.80 105.89 193.08 101.06 C 188.19 94.25 180.46 90.24 173.03 86.78 C 168.68 84.81 163.57 83.50 160.62 79.43 C 159.51 75.87 162.06 73.14 164.23 70.72 C 163.10 72.99 161.91 75.41 162.26 78.04 C 163.62 80.82 166.62 82.04 169.34 83.04 C 176.47 85.65 183.54 88.76 189.51 93.53 C 194.74 97.72 199.26 103.95 198.67 110.98 C 198.75 114.98 195.06 117.35 192.95 120.28 C 191.44 125.71 190.96 132.00 186.90 136.24 C 186.23 134.79 185.58 133.33 184.93 131.87 C 180.83 131.46 177.18 129.69 173.89 127.30 C 172.16 127.44 170.56 128.22 168.92 128.72 C 169.32 126.20 170.70 123.37 169.12 120.99 C 166.97 117.17 164.57 113.49 162.31 109.73 C 160.25 106.44 157.95 102.74 153.94 101.68 C 149.97 100.99 145.82 101.40 142.07 102.91 C 143.58 104.61 145.21 106.19 146.87 107.74 C 148.45 106.85 150.02 105.94 151.59 105.03 C 151.58 106.69 151.50 108.35 151.61 110.00 C 153.66 113.30 156.64 115.96 158.35 119.49 C 161.85 126.45 165.52 133.86 171.96 138.55 C 173.39 137.92 174.74 137.12 176.14 136.44 C 176.70 139.92 173.72 142.41 171.42 144.51 C 169.57 146.30 166.77 145.41 164.47 145.64 C 164.22 142.74 165.08 139.34 163.02 136.91 C 161.68 134.82 159.06 134.50 156.90 133.81 C 154.14 123.54 147.63 112.69 136.68 109.91 C 132.34 110.00 128.34 112.42 123.99 112.67 C 119.02 113.09 114.79 109.13 112.66 104.99 C 111.30 100.95 113.30 96.81 114.59 93.02 C 112.79 94.65 110.64 96.10 109.78 98.48 C 109.27 101.31 109.63 104.20 109.57 107.06 C 109.72 111.46 107.57 115.54 107.58 119.94 C 106.77 135.59 115.90 152.14 130.89 157.81 C 138.35 160.93 145.99 163.58 153.64 166.17 C 163.32 169.64 173.39 173.67 179.98 181.95 C 192.31 169.83 200.27 153.44 202.81 136.38 C 205.40 118.67 201.58 100.16 192.20 84.92 C 187.83 77.85 182.84 71.02 176.34 65.76 C 167.77 58.83 158.00 53.21 147.36 50.19 C 140.72 48.37 133.88 46.71 126.95 47.39 M 84.93 57.78 C 81.04 60.13 77.05 62.50 74.07 66.00 C 76.27 66.79 78.51 68.05 80.94 67.59 C 87.26 65.12 90.73 58.64 96.60 55.50 C 102.51 53.12 108.91 55.41 114.96 56.02 C 114.01 55.14 113.08 54.24 112.15 53.34 C 115.26 52.84 118.30 53.65 121.20 54.71 C 118.58 51.21 114.79 47.40 109.98 48.38 C 101.10 49.70 92.58 53.12 84.93 57.78 M 52.30 95.45 L 53.03 95.99 C 54.97 96.79 56.85 95.57 58.63 94.90 C 62.26 93.26 63.94 89.37 66.68 86.69 C 69.51 83.71 73.54 82.45 77.27 81.01 C 74.24 79.03 70.75 77.53 68.83 74.26 C 73.47 74.92 78.01 76.88 82.78 76.07 C 79.20 73.04 75.07 70.70 71.89 67.20 C 63.67 75.17 55.87 84.40 52.30 95.45 M 146.16 85.53 C 146.99 87.61 147.48 90.18 149.62 91.36 C 152.65 93.12 156.03 94.13 159.22 95.56 C 159.33 94.57 159.44 93.57 159.56 92.58 C 155.07 90.34 151.63 84.73 146.16 85.53 M 51.37 97.20 C 43.48 118.09 44.60 142.34 55.16 162.10 C 56.00 164.09 59.05 162.55 59.18 160.74 C 61.58 151.91 57.67 142.99 58.59 134.11 C 59.52 128.97 62.74 124.69 64.90 120.04 C 62.24 118.89 59.40 117.81 57.42 115.59 C 55.19 113.39 54.27 110.32 53.09 107.50 C 55.28 108.02 57.53 108.91 59.82 108.45 C 63.86 107.12 66.75 103.77 69.26 100.50 C 66.60 100.32 63.93 100.57 61.27 100.37 C 58.20 100.03 55.90 97.64 53.00 96.84 C 52.59 96.93 51.78 97.11 51.37 97.20 M 57.98 165.90 C 58.59 167.56 59.21 169.25 60.26 170.69 C 65.59 178.04 71.94 184.71 79.41 189.90 C 79.77 188.40 80.68 186.82 79.98 185.27 C 78.54 180.71 75.79 176.65 72.37 173.33 C 71.10 174.08 69.84 174.86 68.60 175.68 C 68.33 171.63 68.43 167.56 68.54 163.51 C 65.18 164.95 61.64 165.79 57.98 165.90 Z" />
<path fill="#ffffff" opacity="1.00" d=" M 0.00 138.16 C 2.45 147.09 3.45 156.40 6.65 165.13 C 15.86 191.40 33.19 215.44 57.30 229.87 C 71.77 239.17 88.11 245.74 105.17 248.17 C 108.70 248.66 112.16 249.54 115.70 250.00 L 0.00 250.00 L 0.00 138.16 Z" />
<path fill="#ffffff" opacity="1.00" d=" M 245.88 156.60 C 247.33 150.50 248.29 144.29 250.00 138.26 L 250.00 250.00 L 134.27 250.00 C 144.58 248.18 155.05 246.88 164.95 243.33 C 204.13 230.27 235.55 196.57 245.88 156.60 Z" />
</g>
<g id="#16ce76ff">
<path fill="#16ce76" opacity="1.00" d=" M 109.97 0.00 L 138.23 0.00 C 145.80 2.21 153.70 3.05 161.22 5.43 C 176.33 10.00 190.30 17.75 202.95 27.10 C 222.28 42.45 236.81 63.69 244.40 87.16 C 246.60 93.81 247.16 100.92 250.00 107.38 L 250.00 138.26 C 248.29 144.29 247.33 150.50 245.88 156.60 C 235.55 196.57 204.13 230.27 164.95 243.33 C 155.05 246.88 144.58 248.18 134.27 250.00 L 115.70 250.00 C 112.16 249.54 108.70 248.66 105.17 248.17 C 88.11 245.74 71.77 239.17 57.30 229.87 C 33.19 215.44 15.86 191.40 6.65 165.13 C 3.45 156.40 2.45 147.09 0.00 138.16 L 0.00 108.85 C 2.65 102.41 3.40 95.43 5.40 88.80 C 9.40 75.49 15.91 63.05 23.71 51.60 C 39.50 29.52 62.83 13.01 88.78 5.14 C 95.73 2.95 103.06 2.34 109.97 0.00 M 117.31 39.84 C 108.49 40.77 99.89 43.07 91.67 46.38 C 84.64 48.90 78.61 53.41 72.49 57.56 C 62.57 64.64 55.32 74.69 49.31 85.15 C 36.47 108.91 36.05 138.78 48.27 162.87 C 55.15 175.64 64.21 187.70 76.76 195.37 C 101.57 213.38 136.44 215.58 163.52 201.37 C 174.25 195.35 184.63 188.13 192.02 178.12 C 196.49 171.79 200.98 165.37 203.91 158.14 C 215.08 132.41 212.35 100.98 196.19 77.94 C 190.60 69.04 183.28 61.13 174.43 55.42 C 169.56 52.13 164.68 48.73 159.13 46.69 C 150.72 43.52 142.05 40.33 132.94 40.28 C 127.77 39.60 122.51 39.04 117.31 39.84 Z" />
<path fill="#16ce76" opacity="1.00" d=" M 126.95 47.39 C 133.88 46.71 140.72 48.37 147.36 50.19 C 158.00 53.21 167.77 58.83 176.34 65.76 C 182.84 71.02 187.83 77.85 192.20 84.92 C 201.58 100.16 205.40 118.67 202.81 136.38 C 200.27 153.44 192.31 169.83 179.98 181.95 C 173.39 173.67 163.32 169.64 153.64 166.17 C 145.99 163.58 138.35 160.93 130.89 157.81 C 115.90 152.14 106.77 135.59 107.58 119.94 C 107.57 115.54 109.72 111.46 109.57 107.06 C 109.63 104.20 109.27 101.31 109.78 98.48 C 110.64 96.10 112.79 94.65 114.59 93.02 C 113.30 96.81 111.30 100.95 112.66 104.99 C 114.79 109.13 119.02 113.09 123.99 112.67 C 128.34 112.42 132.34 110.00 136.68 109.91 C 147.63 112.69 154.14 123.54 156.90 133.81 C 159.06 134.50 161.68 134.82 163.02 136.91 C 165.08 139.34 164.22 142.74 164.47 145.64 C 166.77 145.41 169.57 146.30 171.42 144.51 C 173.72 142.41 176.70 139.92 176.14 136.44 C 174.74 137.12 173.39 137.92 171.96 138.55 C 165.52 133.86 161.85 126.45 158.35 119.49 C 156.64 115.96 153.66 113.30 151.61 110.00 C 151.50 108.35 151.58 106.69 151.59 105.03 C 150.02 105.94 148.45 106.85 146.87 107.74 C 145.21 106.19 143.58 104.61 142.07 102.91 C 145.82 101.40 149.97 100.99 153.94 101.68 C 157.95 102.74 160.25 106.44 162.31 109.73 C 164.57 113.49 166.97 117.17 169.12 120.99 C 170.70 123.37 169.32 126.20 168.92 128.72 C 170.56 128.22 172.16 127.44 173.89 127.30 C 177.18 129.69 180.83 131.46 184.93 131.87 C 185.58 133.33 186.23 134.79 186.90 136.24 C 190.96 132.00 191.44 125.71 192.95 120.28 C 195.06 117.35 198.75 114.98 198.67 110.98 C 199.26 103.95 194.74 97.72 189.51 93.53 C 183.54 88.76 176.47 85.65 169.34 83.04 C 166.62 82.04 163.62 80.82 162.26 78.04 C 161.91 75.41 163.10 72.99 164.23 70.72 C 162.06 73.14 159.51 75.87 160.62 79.43 C 163.57 83.50 168.68 84.81 173.03 86.78 C 180.46 90.24 188.19 94.25 193.08 101.06 C 196.80 105.89 196.55 114.16 190.98 117.52 C 187.28 118.40 184.11 115.77 181.47 113.56 C 177.04 109.39 172.58 105.08 169.31 99.91 C 170.05 98.11 172.12 97.41 173.58 96.29 C 173.60 94.75 173.57 93.22 173.51 91.69 C 165.22 87.43 155.30 83.62 151.20 74.54 C 149.90 72.48 150.92 70.06 151.34 67.89 C 149.72 68.67 148.12 69.51 146.54 70.39 C 139.30 63.39 131.67 56.44 126.95 47.39 Z" />
<path fill="#16ce76" opacity="1.00" d=" M 84.93 57.78 C 92.58 53.12 101.10 49.70 109.98 48.38 C 114.79 47.40 118.58 51.21 121.20 54.71 C 118.30 53.65 115.26 52.84 112.15 53.34 C 113.08 54.24 114.01 55.14 114.96 56.02 C 108.91 55.41 102.51 53.12 96.60 55.50 C 90.73 58.64 87.26 65.12 80.94 67.59 C 78.51 68.05 76.27 66.79 74.07 66.00 C 77.05 62.50 81.04 60.13 84.93 57.78 Z" />
<path fill="#16ce76" opacity="1.00" d=" M 52.30 95.45 C 55.87 84.40 63.67 75.17 71.89 67.20 C 75.07 70.70 79.20 73.04 82.78 76.07 C 78.01 76.88 73.47 74.92 68.83 74.26 C 70.75 77.53 74.24 79.03 77.27 81.01 C 73.54 82.45 69.51 83.71 66.68 86.69 C 63.94 89.37 62.26 93.26 58.63 94.90 C 56.85 95.57 54.97 96.79 53.03 95.99 L 52.30 95.45 Z" />
<path fill="#16ce76" opacity="1.00" d=" M 146.16 85.53 C 151.63 84.73 155.07 90.34 159.56 92.58 C 159.44 93.57 159.33 94.57 159.22 95.56 C 156.03 94.13 152.65 93.12 149.62 91.36 C 147.48 90.18 146.99 87.61 146.16 85.53 Z" />
<path fill="#16ce76" opacity="1.00" d=" M 51.37 97.20 C 51.78 97.11 52.59 96.93 53.00 96.84 C 55.90 97.64 58.20 100.03 61.27 100.37 C 63.93 100.57 66.60 100.32 69.26 100.50 C 66.75 103.77 63.86 107.12 59.82 108.45 C 57.53 108.91 55.28 108.02 53.09 107.50 C 54.27 110.32 55.19 113.39 57.42 115.59 C 59.40 117.81 62.24 118.89 64.90 120.04 C 62.74 124.69 59.52 128.97 58.59 134.11 C 57.67 142.99 61.58 151.91 59.18 160.74 C 59.05 162.55 56.00 164.09 55.16 162.10 C 44.60 142.34 43.48 118.09 51.37 97.20 Z" />
<path fill="#16ce76" opacity="1.00" d=" M 57.98 165.90 C 61.64 165.79 65.18 164.95 68.54 163.51 C 68.43 167.56 68.33 171.63 68.60 175.68 C 69.84 174.86 71.10 174.08 72.37 173.33 C 75.79 176.65 78.54 180.71 79.98 185.27 C 80.68 186.82 79.77 188.40 79.41 189.90 C 71.94 184.71 65.59 178.04 60.26 170.69 C 59.21 169.25 58.59 167.56 57.98 165.90 Z" />
</g>
</svg>

<?xml version="1.0" encoding="utf-8"?>
<!-- Generator: Adobe Illustrator 26.0.3, SVG Export Plug-In . SVG Version: 6.00 Build 0)  -->
<svg version="1.1" id="Layer_1" xmlns="http://www.w3.org/2000/svg" xmlns:xlink="http://www.w3.org/1999/xlink" x="0px" y="0px"
	 viewBox="0 0 250 250" style="enable-background:new 0 0 250 250;" xml:space="preserve">
<style type="text/css">
	.st0{fill:#FFFFFF;}
	.st1{fill:#16CE76;}
</style>
<g id="_x23_ffffffff">
	<path class="st0" d="M117.3,39.8c5.2-0.8,10.5-0.2,15.6,0.4c9.1,0.1,17.8,3.2,26.2,6.4c5.5,2,10.4,5.4,15.3,8.7
		c8.9,5.7,16.2,13.6,21.8,22.5c16.2,23,18.9,54.5,7.7,80.2c-2.9,7.2-7.4,13.6-11.9,20c-7.4,10-17.8,17.2-28.5,23.2
		c-27.1,14.2-62,12-86.8-6c-12.6-7.7-21.6-19.7-28.5-32.5c-12.2-24.1-11.8-54,1-77.7c6-10.5,13.3-20.5,23.2-27.6
		c6.1-4.2,12.2-8.7,19.2-11.2C99.9,43.1,108.5,40.8,117.3,39.8 M126.9,47.4c4.7,9,12.4,16,19.6,23c1.6-0.9,3.2-1.7,4.8-2.5
		c-0.4,2.2-1.4,4.6-0.1,6.7c4.1,9.1,14,12.9,22.3,17.2c0.1,1.5,0.1,3.1,0.1,4.6c-1.5,1.1-3.5,1.8-4.3,3.6c3.3,5.2,7.7,9.5,12.2,13.6
		c2.6,2.2,5.8,4.8,9.5,4c5.6-3.4,5.8-11.6,2.1-16.5c-4.9-6.8-12.6-10.8-20.1-14.3c-4.4-2-9.5-3.3-12.4-7.3c-1.1-3.6,1.4-6.3,3.6-8.7
		c-1.1,2.3-2.3,4.7-2,7.3c1.4,2.8,4.4,4,7.1,5c7.1,2.6,14.2,5.7,20.2,10.5c5.2,4.2,9.8,10.4,9.2,17.5c0.1,4-3.6,6.4-5.7,9.3
		c-1.5,5.4-2,11.7-6.1,16c-0.7-1.5-1.3-2.9-2-4.4c-4.1-0.4-7.8-2.2-11-4.6c-1.7,0.1-3.3,0.9-5,1.4c0.4-2.5,1.8-5.3,0.2-7.7
		c-2.1-3.8-4.5-7.5-6.8-11.3c-2.1-3.3-4.4-7-8.4-8.1c-4-0.7-8.1-0.3-11.9,1.2c1.5,1.7,3.1,3.3,4.8,4.8c1.6-0.9,3.2-1.8,4.7-2.7
		c0,1.7-0.1,3.3,0,5c2.1,3.3,5,6,6.7,9.5c3.5,7,7.2,14.4,13.6,19.1c1.4-0.6,2.8-1.4,4.2-2.1c0.6,3.5-2.4,6-4.7,8.1
		c-1.8,1.8-4.6,0.9-6.9,1.1c-0.2-2.9,0.6-6.3-1.4-8.7c-1.3-2.1-4-2.4-6.1-3.1c-2.8-10.3-9.3-21.1-20.2-23.9
		c-4.3,0.1-8.3,2.5-12.7,2.8c-5,0.4-9.2-3.5-11.3-7.7c-1.4-4,0.6-8.2,1.9-12c-1.8,1.6-3.9,3.1-4.8,5.5c-0.5,2.8-0.2,5.7-0.2,8.6
		c0.2,4.4-2,8.5-2,12.9c-0.8,15.6,8.3,32.2,23.3,37.9c7.5,3.1,15.1,5.8,22.8,8.4c9.7,3.5,19.8,7.5,26.3,15.8
		c12.3-12.1,20.3-28.5,22.8-45.6c2.6-17.7-1.2-36.2-10.6-51.5c-4.4-7.1-9.4-13.9-15.9-19.2c-8.6-6.9-18.3-12.6-29-15.6
		C140.7,48.4,133.9,46.7,126.9,47.4 M84.9,57.8c-3.9,2.4-7.9,4.7-10.9,8.2c2.2,0.8,4.4,2.1,6.9,1.6c6.3-2.5,9.8-8.9,15.7-12.1
		c5.9-2.4,12.3-0.1,18.4,0.5c-0.9-0.9-1.9-1.8-2.8-2.7c3.1-0.5,6.2,0.3,9,1.4c-2.6-3.5-6.4-7.3-11.2-6.3
		C101.1,49.7,92.6,53.1,84.9,57.8 M52.3,95.4L53,96c1.9,0.8,3.8-0.4,5.6-1.1c3.6-1.6,5.3-5.5,8-8.2c2.8-3,6.9-4.2,10.6-5.7
		c-3-2-6.5-3.5-8.4-6.8c4.6,0.7,9.2,2.6,13.9,1.8c-3.6-3-7.7-5.4-10.9-8.9C63.7,75.2,55.9,84.4,52.3,95.4 M146.2,85.5
		c0.8,2.1,1.3,4.7,3.5,5.8c3,1.8,6.4,2.8,9.6,4.2c0.1-1,0.2-2,0.3-3C155.1,90.3,151.6,84.7,146.2,85.5 M51.4,97.2
		c-7.9,20.9-6.8,45.1,3.8,64.9c0.8,2,3.9,0.4,4-1.4c2.4-8.8-1.5-17.8-0.6-26.6c0.9-5.1,4.2-9.4,6.3-14.1c-2.7-1.2-5.5-2.2-7.5-4.5
		c-2.2-2.2-3.1-5.3-4.3-8.1c2.2,0.5,4.4,1.4,6.7,0.9c4-1.3,6.9-4.7,9.4-7.9c-2.7-0.2-5.3,0.1-8-0.1c-3.1-0.3-5.4-2.7-8.3-3.5
		C52.6,96.9,51.8,97.1,51.4,97.2 M58,165.9c0.6,1.7,1.2,3.4,2.3,4.8c5.3,7.3,11.7,14,19.2,19.2c0.4-1.5,1.3-3.1,0.6-4.6
		c-1.4-4.6-4.2-8.6-7.6-11.9c-1.3,0.8-2.5,1.5-3.8,2.3c-0.3-4-0.2-8.1-0.1-12.2C65.2,164.9,61.6,165.8,58,165.9z"/>
</g>
<g id="_x23_16ce76ff">
	<path class="st1" d="M110,0h28.3c7.6,2.2,15.5,3,23,5.4c15.1,4.6,29.1,12.3,41.7,21.7c19.3,15.4,33.9,36.6,41.4,60.1
		c2.2,6.6,2.8,13.8,5.6,20.2v30.9c-1.7,6-2.7,12.2-4.1,18.3c-10.3,40-41.8,73.7-80.9,86.7c-9.9,3.6-20.4,4.8-30.7,6.7h-18.6
		c-3.5-0.5-7-1.3-10.5-1.8c-17.1-2.4-33.4-9-47.9-18.3c-24.1-14.4-41.4-38.5-50.6-64.7c-3.2-8.7-4.2-18-6.7-27v-29.3
		c2.7-6.4,3.4-13.4,5.4-20c4-13.3,10.5-25.8,18.3-37.2C39.5,29.5,62.8,13,88.8,5.1C95.7,3,103.1,2.3,110,0 M117.3,39.8
		c-8.8,0.9-17.4,3.2-25.6,6.5c-7,2.5-13.1,7-19.2,11.2c-9.9,7.1-17.2,17.1-23.2,27.6c-12.8,23.8-13.3,53.6-1,77.7
		c6.9,12.8,15.9,24.8,28.5,32.5c24.8,18,59.7,20.2,86.8,6c10.7-6,21.1-13.2,28.5-23.2c4.5-6.3,9-12.8,11.9-20
		c11.2-25.7,8.4-57.2-7.7-80.2c-5.6-8.9-12.9-16.8-21.8-22.5c-4.9-3.3-9.8-6.7-15.3-8.7c-8.4-3.2-17.1-6.4-26.2-6.4
		C127.8,39.6,122.5,39,117.3,39.8z"/>
	<path class="st1" d="M126.9,47.4c6.9-0.7,13.8,1,20.4,2.8c10.6,3,20.4,8.6,29,15.6c6.5,5.3,11.5,12.1,15.9,19.2
		c9.4,15.2,13.2,33.8,10.6,51.5c-2.5,17.1-10.5,33.4-22.8,45.6c-6.6-8.3-16.7-12.3-26.3-15.8c-7.6-2.6-15.3-5.2-22.8-8.4
		c-15-5.7-24.1-22.2-23.3-37.9c0-4.4,2.1-8.5,2-12.9c0.1-2.9-0.3-5.8,0.2-8.6c0.9-2.4,3-3.8,4.8-5.5c-1.3,3.8-3.3,7.9-1.9,12
		c2.1,4.1,6.4,8.1,11.3,7.7c4.3-0.2,8.3-2.7,12.7-2.8c11,2.8,17.5,13.6,20.2,23.9c2.2,0.7,4.8,1,6.1,3.1c2.1,2.4,1.2,5.8,1.4,8.7
		c2.3-0.2,5.1,0.7,6.9-1.1c2.3-2.1,5.3-4.6,4.7-8.1c-1.4,0.7-2.8,1.5-4.2,2.1c-6.4-4.7-10.1-12.1-13.6-19.1
		c-1.7-3.5-4.7-6.2-6.7-9.5c-0.1-1.7,0-3.3,0-5c-1.6,0.9-3.1,1.8-4.7,2.7c-1.7-1.5-3.3-3.1-4.8-4.8c3.8-1.5,7.9-1.9,11.9-1.2
		c4,1.1,6.3,4.8,8.4,8.1c2.3,3.8,4.7,7.4,6.8,11.3c1.6,2.4,0.2,5.2-0.2,7.7c1.6-0.5,3.2-1.3,5-1.4c3.3,2.4,6.9,4.2,11,4.6
		c0.7,1.5,1.3,2.9,2,4.4c4.1-4.2,4.5-10.5,6.1-16c2.1-2.9,5.8-5.3,5.7-9.3c0.6-7-3.9-13.3-9.2-17.5c-6-4.8-13-7.9-20.2-10.5
		c-2.7-1-5.7-2.2-7.1-5c-0.3-2.6,0.8-5.1,2-7.3c-2.2,2.4-4.7,5.2-3.6,8.7c3,4.1,8.1,5.4,12.4,7.3c7.4,3.5,15.2,7.5,20.1,14.3
		c3.7,4.8,3.5,13.1-2.1,16.5c-3.7,0.9-6.9-1.8-9.5-4c-4.4-4.2-8.9-8.5-12.2-13.6c0.7-1.8,2.8-2.5,4.3-3.6c0-1.5,0-3.1-0.1-4.6
		c-8.3-4.3-18.2-8.1-22.3-17.2c-1.3-2.1-0.3-4.5,0.1-6.7c-1.6,0.8-3.2,1.6-4.8,2.5C139.3,63.4,131.7,56.4,126.9,47.4z"/>
	<path class="st1" d="M84.9,57.8c7.7-4.7,16.2-8.1,25.1-9.4c4.8-1,8.6,2.8,11.2,6.3c-2.9-1.1-5.9-1.9-9-1.4c0.9,0.9,1.9,1.8,2.8,2.7
		c-6-0.6-12.4-2.9-18.4-0.5c-5.9,3.1-9.3,9.6-15.7,12.1c-2.4,0.5-4.7-0.8-6.9-1.6C77.1,62.5,81,60.1,84.9,57.8z"/>
	<path class="st1" d="M52.3,95.4c3.6-11,11.4-20.3,19.6-28.2c3.2,3.5,7.3,5.8,10.9,8.9c-4.8,0.8-9.3-1.2-13.9-1.8
		c1.9,3.3,5.4,4.8,8.4,6.8c-3.7,1.4-7.8,2.7-10.6,5.7c-2.7,2.7-4.4,6.6-8,8.2C56.8,95.6,55,96.8,53,96L52.3,95.4z"/>
	<path class="st1" d="M146.2,85.5c5.5-0.8,8.9,4.8,13.4,7.1c-0.1,1-0.2,2-0.3,3c-3.2-1.4-6.6-2.4-9.6-4.2
		C147.5,90.2,147,87.6,146.2,85.5z"/>
	<path class="st1" d="M51.4,97.2c0.4-0.1,1.2-0.3,1.6-0.4c2.9,0.8,5.2,3.2,8.3,3.5c2.7,0.2,5.3-0.1,8,0.1c-2.5,3.3-5.4,6.6-9.4,7.9
		c-2.3,0.5-4.5-0.4-6.7-0.9c1.2,2.8,2.1,5.9,4.3,8.1c2,2.2,4.8,3.3,7.5,4.5c-2.2,4.7-5.4,8.9-6.3,14.1c-0.9,8.9,3,17.8,0.6,26.6
		c-0.1,1.8-3.2,3.3-4,1.4C44.6,142.3,43.5,118.1,51.4,97.2z"/>
	<path class="st1" d="M58,165.9c3.7-0.1,7.2-0.9,10.6-2.4c-0.1,4.1-0.2,8.1,0.1,12.2c1.2-0.8,2.5-1.6,3.8-2.3
		c3.4,3.3,6.2,7.4,7.6,11.9c0.7,1.6-0.2,3.1-0.6,4.6c-7.5-5.2-13.8-11.9-19.2-19.2C59.2,169.2,58.6,167.6,58,165.9z"/>
</g>
</svg>
